X:1
T:Title
%%score { 1 | 2 }
L:1/8
Q:1/4=108
M:6/8
K:Bb
V:1 treble nm="Grand Piano"
V:2 bass 
V:1
 F3 G2 A | B3 B3 | B2 B c2 c | d3 [Fd]3 | [Ge]2 [Ge] e2 e | d2 d d3 | c2 c B2 B | A3 [Ac]3 | %8
w: William~Bradbury * *||||||||
 [Ac]3 [Bd]2 [Bd] | [Ac]3 F3 | [Ac]2 [Ac] [Bd]2 [Bd] | [Ac]3 F3 | [FB]2 [FB] [FB]2 F | G2 G G3 | %14
w: ||||||
 F2 B A2 c | [DB]3 [DB]3 |] %16
w: ||
V:2
 F,3 G,2 A, | B,3 B,3 | [G,D]2 [G,D] [A,F]2 [A,F] | [B,F]3[K:bass] B,,3 | %4
 E,2 E,[K:treble] [G,G]2 [A,F] | [B,F]2 [B,F] [B,F]3 | [A,F]2 [A,F][K:bass] [G,=E]2 [G,E] | %7
 [F,F]3 F,3 | F,3 B,,2 D, | F,3 F,3 | F,2 F, B,,2 D, | F,3 F,3 | D,2 D, D,2 D, | %13
 [E,E]2 [E,E] [E,E]3 | [F,D]2 [F,D] [F,C]2 [F,E] | B,,3 B,,3 |] %16

